X:1
T:Puisque damour reçoys
T:Jean Maillard
T:Source : Livre XI de 28 chansons nouvelles à 4 parties---Paris---P.Attaingnant---1542. Editor : André Vierendeels (02/06/18). Notes : Original clefs : C1, C3, C4, F4 Original note values have been halved Editorial accidentals above the staff Dotted brackets indicate black notes
T:#
T:Puisque damour reçoys
T:©
T:©
T:©
T:©
C:Jean Maillard
Z:©
%%score [ 1 [ 2 3 ] 4 ]
L:1/8
Q:1/4=120
M:3/4
K:F
V:1 treble nm="Alto" snm="A"
V:2 treble-8 nm="Tenor 1" snm="T 1"
V:3 treble-8 nm="Tenor 2" snm="T 2"
V:4 bass nm="Bass" snm="B"
V:1
 F2 F2 F2 | G4 G2 | B4 A2 | G4 F2 | G4 z2 | E2 E2 E2 | F4 G2 | A2 G3 F | F4 E2 | F4 z2 | F2 F2 F2 | %11
w: Puis- que da-|mour re-|çoys e-|lec- ti-|on,|en fer- me-|té dung|bon con- *|ten- te-|ment,|as- seu- ré|
 G4 G2 | B4 A2 | G4 F2 | G4 z2 | E2 E2 E2 | F4 G2 | A2 G3 F | F4 E2 |[M:2/2] F8 | z4 E4- | %21
w: suis sans|nul- le|fic- ti-|on,|vi- vr'en plai-|sir tous-|iours ioy- *|eu- se-|ment,|pour-|
 E4 F2 F2 | EDEF GFGA | B2 A2 A2 G2 |"^#" G2 F2 G4 | z2 c2 c2 c2 | A2 c2 c3 B | A2 G2 F2 E2 | %28
w: * veu que|foy _ _ _ _ _ _ _|_ me don- ne'as-|seu- re- ment,|de sa pro-|mes- s'en loy- al-|le puis- san- *|
 F4 E4- |[M:2/4] E4 |:[M:2/2] z4 F4- | F4 F4 | G4 E4 | z2 E2 F2 E2 | D2 D2 C2 C2 | C2 C2 F4- | %36
w: * ce,|_|puis|_ à|la fin,|du cueur con-|sen- te- ment, la|fer- me- té|
 F4 z2 G2 | A2 c2 cBAG | A2 B2 G2 c2- | c2 BA G2 A2- | AG F4 E2 | F8 :| %42
w: _ me|vaul- dra io- * * *|* ys- san- *|||ce.|
V:2
 c2 d2 d2 | e4 e2 | f6 | d2 d2 d2 | B4 z2 | c2 c2 c2 | d4 d2 | f2 e2 d2- | d2 c4 | c4 z2 | %10
w: Puis- que da-|mour re-|çoys|e- lec- ti-|on,|en fer- me-|té dung|bon con- ten-|* te-|ment,|
 c2 d2 d2 | e4 e2 | f6 | d2 d2 d2 | B4 z2 | c2 c2 c2 | d4 d2 | f2 e2 d2- | d2 c4 |[M:2/2] c8 | %20
w: as- seu- ré|suis sans|nul-|le fic- ti-|on,|vi- vr'en plai-|sir tous-|iours ioy- eu-|* se-|ment,|
 z4 c4- | c4 c2 B2 | c4 d4 | g2 f2 fedc | d2 d2 d4 | e4 e2 e2 | f2 f2 e2 e2 | c2 e2 dc c2- | %28
w: pour-|* veu que|foy me|don- ne'as- seu- * * *|* re- ment,|de sa pro-|mes- s'en loy- al-|le puis- san- * *|
"^-natural" c2 B2 c4- |[M:2/4] c4 |:[M:2/2] z4 c4- | c4 d4 | d4 c4 | c4 c3 B | A2 B2 G4 | %35
w: * * ce,|_|puis|_ à|la fin,|du cueur con-|sen- te- ment,|
 z2 F2 F2 F2 | c4 z2 c2 | f2 e2 f4- | f2 ed edef | g3 f ed c2- | c2 d2 c4 | c8 :| %42
w: la fer- me-|té me|vaul- dra io-|||* ys- san-|ce.|
V:3
 F2 F2 F2 | c4 c2 | d4 c2- | c2 B2 A2 | G4 z2 | G2 G2 G2 | B4 B2 | c3 B A2 | B2 G2 G2 | F4 z2 | %10
w: Puis- que da-|mour re-|çoys e-|* lec- ti-|on,|en fer- me-|té dung|bon _ _|con- ten- te-|ment,|
 F2 F2 F2 | c4 c2 | d4 c2- | c2 B2 A2 | G4 z2 | G2 G2 G2 | B4 B2 | c3 B A2 | B2 G2 G2 |[M:2/2] F8 | %20
w: as- seu- ré|suis sans|nul- le|_ fic- ti-|on,|vi- vr'en plai-|sir tous-|iours _ _|ioy- eu- se-|ment,|
 z4 G4- | G4 A2 F2 | GFGA BABc | d2 d2 c2 B2 | A2 A2 G4- | G4 z2 c2 | c2 c2 A2 c2 | c3 B A2 G2 | %28
w: pour-|* veu que|foy _ _ _ _ _ _ _|_ me don- ne'as-|seu- re- ment,|_ de|sa pro- mes- s'en|loy- al- le puis-|
 F4 G4- |[M:2/4] G4 |:[M:2/2] z4 A4- | A4 A4 | B4 G2 G2 | A2 G2 F2 G2- | GF F4 E2 | F4 z2 A2 | %36
w: san- ce,|_|puis|_ à|la fin, du|cueur ci- on sen-|* * * te-|ment, la|
 A2 A2 G4 | z2 G2 A2 c2 | c2 B2 c3 B/A/ | G2 c3 B AG | A2 B2 G4 | F8 :| %42
w: fer- me- té|me vaul- dra|io- ys- san- * *|||ce.|
V:4
 F,2 B,,2 D,2 | C,4 C,2 | B,,C, D,E, F,2 | G,2 D,2 D,2 | G,,4 z2 | C,2 C,2 C,2 | B,,4 G,,2 | %7
w: Puis- que da-|mour re-|çoys _ _ _ _|e- lec- ti-|on,|de fer- me-|té dung|
 F,,2 C,2 D,2- | D,2 B,,2 C,2 | F,,4 z2 | F,2 B,,2 D,2 | C,4 C,2 | B,,C, D,E, F,2 | G,2 D,2 D,2 | %14
w: bon con- ten-|* * te-|ment,|as- seu- ré|suis sans|nul- * * * *|le fic- ti-|
 G,,4 z2 | C,2 C,2 C,2 | B,,4 G,,2 | F,,2 C,2 D,2- | D,2 B,,2 C,2 |[M:2/2] F,,8 | z4 C,4- | %21
w: on,|vi- vr'en plai-|sir tous-|iours ioy- eu-|* * se-|ment,|pour-|
 C,4 F,2 D,2 | C,3 B,,/A,,/ G,,2 G,2 | G,2 D,2 F,2 G,2 | D,4 z2 G,,2 | C,2 C,2 A,,4 | F,,4 z2 C,2 | %27
w: * veu que|foy _ _ _ me|don- ne'as- seu- re-|ment, de|sa pro- mes-|e en|
 F,2 E,2 F,2 C,2 | D,4 C,4- |[M:2/4] C,4 |:[M:2/2] z4 F,4- | F,4 D,4 | G,4 C,4- | C,4 z2 C,2 | %34
w: loy- al- le puis-|san- ce,|_|puis|_ à|la fin,|_ du|
 D,2 B,,2 C,2 C,2 | F,,4 z2 F,,2 | F,,2 F,,2 C,4 | z2 C,2 F,3 E, | F,2 G,2 C,4 | C,3 D, E,2 F,2- | %40
w: cueur con- sen- te-|ment, la|fer- me- té|me vaul- dra|io- ys- san-|ce, _ _ io-|
 F,2 B,,2 C,4 | F,,8 :| %42
w: * ys- san-|ce.|

